X:0911
T:Duff's Scots Measure.
M:C
L:1/8
Q:3/8=120
I: :: :|
N:last note of each part is printed d2
N:first bar is printed |AAB A2F2|
Z:Jack Campin * www.campin.me.uk * 2009
K:D
 F/G/|A2AB A2F2|A2AB A2F2|dcBA cBAG|G2E2 E2
FG   |A2AB A2F2|A2AB BAGF|Bdce dfeg|f2d2 d3:|
 f/g/|abab a2gf|gaga gfed|gege fdfd|f2e2 e2
fg   |abab bagf|gaga gfed|Bdce dfeg|f2d2 d3:|

